X:82
T: Die dienende Schwester
N: Q0075k
O: Mitteleuropa, Deutschland (BRD) , Baden
N: Zweistimmig notiert, Oberstimme kodiert.
R: Ballade, Adelige als Dienstmagd, Tod; Kinder - Spiel, Tanz
M: 6/8
L: 1/8
K: C
G | E2GEFG | cBcG2
F | DDFDEF | A2AG2
G | cBcedc | d2ec2
G | cBcedc | d2ec2

@@@ Tune index: 1137
